X: 305849
M: 2/4
L: 1/16
K: D
a2AA A2a2 | f2dd d2f2 | {^g}a2AA a2a2 | (f4 d2)f2 |\
{^g}a2AA A2a2 | f2dd d2f2 | {^g}a2AA A2a2 | d6 "^D.C."z2 |]
{^g}a3ef3d | (e3d) B2Bc | .d2(de) .f2(fg) | b2a2 a4 |\
(d3ef3d) | (d3c)(B3A) | {^c}d4 z2(FA) | D6 "^D.C."z2 |]


